public/img/BackButton.svg

<svg fill="none" height="14" viewBox="0 0 8 14" width="8" xmlns="http://www.w3.org/2000/svg"><path d="m.292893 6.29289c-.187536.18754-.292893.44189-.292893.70711s.105357.51957.292893.70711l5.999997 5.99999c.39053.3905 1.02369.3905 1.41422 0 .39052-.3905.39052-1.0237 0-1.4142l-5.2929-5.2929 5.2929-5.29289c.39052-.39053.39052-1.023692 0-1.414216-.39053-.3905252-1.02369-.3905252-1.41422 0z" fill="#abafd1"/></svg>

<svg width="8" height="14" viewBox="0 0 8 14" fill="none" xmlns="http://www.w3.org/2000/svg">
<path d="M0.292893 6.29289C0.105357 6.48043 0 6.73478 0 7C0 7.26522 0.105357 7.51957 0.292893 7.70711L6.29289 13.7071C6.68342 14.0976 7.31658 14.0976 7.70711 13.7071C8.09763 13.3166 8.09763 12.6834 7.70711 12.2929L2.41421 7L7.70711 1.70711C8.09763 1.31658 8.09763 0.683418 7.70711 0.292894C7.31658 -0.0976312 6.68342 -0.0976312 6.29289 0.292894L0.292893 6.29289Z" fill="#ABAFD1"/>
</svg>
